X:1
T:Maria mater gratiae
T:Johann Kaspar Aiblinger
T:ed. Jeffrey Quick
T:Maria mater gratiae
T:Bayerischen Staatsbibliothek, Mus.ms. 3890 (ca. 1830)
T:©2016
T:©2016
T:©2016
T:©2016
T:©2016
T:©2016
C:Johann Kaspar Aiblinger
Z:©2016
%%score [ 1 2 ] { ( 3 6 ) | ( 4 5 ) }
L:1/8
Q:1/4=100
M:3/4
K:G
V:1 treble nm="Soprano 1" snm="S 1"
V:2 treble nm="Soprano 2" snm="S 2"
V:3 treble nm="Organ" snm="Org."
V:6 treble 
V:4 bass 
V:5 bass 
V:1
"^Andante" d2 d2 d2 | d4 B2 | (B2 c2) A2 | G4 z2 | (d2 e2) d2 | g4 d2 | d2 c2 B2 | A4 z2 | %8
w: Ma- ri- a|ma- ter|gra- * ti-|ae|dul- * cis|pa- rens|cle- men- ti-|ae|
 A2 (cB) (AG) | (A3 B) A2 | B2 c2 !>!e>d | d4 z2 | d2 g2 e2 | (d3 c) B2 | (B2 c2) A>d | d4 z2 | %16
w: tu nos _ ab _|ho- * ste|pro- * te- *|ge|et mor- tis|ho- * ra|su- * sci- *|pe|
 d2 (gf) (ge) | (d3 c) B2 | (B2 c2) A>G | G4 z2 |[K:Gmin] G2 ^FG AF | G2 A2 B2 | B4 c>A | B4 z2 | %24
w: et mor- * tis _|ho- * ra|su- * sci- *|pe|Je- * * su _|ti- bi sit|glo- ri- *|a|
 B2 dc Bd | c4 d2 | (B2 e2) d2 | c4 z2 | d2 d2 e2 | c2 c2 d2 | B4 c2 | A4 z2 |!pp! B2 B2 B2 | %33
w: qui na- * tus _|es de|Vir- * gi-|ne|cum pa- tre|et al- mo|Spi- ri-|tu|in sem- pi-|
 (B3 c) B2 | A4 A>G | G4 z2 | z6 |[K:G]"^dol." d2 d2 d2 | d4 B2 | (B2 c2) A2 | B4 z2 | (d2 e2) d2 | %42
w: ter- * na|sae- cu- *|la||Ma- ri- a|ma- ter|gra- * ti-|ae|dul- * cis|
 g4 d2 | d2 c2 B2 | A4 z2 | A2 cB AG | (A3 B) A2 | (B2 c2) !>!e>d | d4 z2 | d2 g2 e2 | (d3 c) B2 | %51
w: pa- rens|cle- men- ti-|ae|tu nos _ ab _|ho- * ste|pro- * te- *|ge|et mor- tis|ho- * ra|
 (B2 c2) A>d | d4 z2 | d2 (gf) (ge) | (d3 c) B2 | B2 c2 A>G | G4 z2 | B6 | c4 z2 | A6- | %60
w: su- * sci- *|pe|et mor- * tis _|ho- * ra|su- * sci- *|pe|A-|men|A-|
 A2 !>!!fermata!e2 d2 | G4 z2 | z6 |] G4 z2 | z6 |] %65
w: |men||men||
V:2
 B2 B2 B2 | B4 G2 | (G2 A2) F2 | G4 z2 | (B2 c2) B2 | B4 B2 | B2 A2 G2 | F4 z2 | F2 (AG) (FE) | %9
w: Ma- ri- a|ma- ter|gra- * ti-|ae|dul- * cis|pa- rens|cle- men- ti-|ae|tu nos _ ab _|
 (F3 G) F2 | G2 A2 !>!c>B | B4 z2 | B2 B2 c2 | (B3 A) G2 | (G2 A2) F2 | G4 z2 | B2 B2 c2 | %17
w: ho- * ste|pro- * te- *|ge|et mor- tis|ho- * ra|su- * sci-|pe|et mor- tis|
 (B3 A) G2 | (G2 E2) F>G | G4 z2 |[K:Gmin] D4 D2 | D2 ^F2 G>=E | F4 E2 | D4 z2 | F2 F2 B2 | A4 F2 | %26
w: ho- * ra|su- * sci- *|pe|Je- su|ti- bi sit _|glo- ri-|a|qui na- tus|es de|
 (G2 A2) B2 | A4 z2 | B2 B2 B2 | A2 A2 A2 | G4 G2 | ^F4 z2 |!pp! G2 G2 G2 | (G3 A) G2 | G4 ^F>G | %35
w: Vir- * gi-|ne|cum pa- tre|et al- mo|Spi- ri-|tu|in sem- pi-|ter- * na|sae- cu- *|
 G4 z2 | z6 |[K:G] B2 B2 B2 | B4 G2 | (G2 A2) F2 | G4 z2 | (B2 c2) B2 | B4 B2 | B2 A2 G2 | F4 z2 | %45
w: la||Ma- ri- a|ma- ter|gra- * ti-|ae|dul- * cis|pa- rens|cle- men- ti-|ae|
 F2 AG FE | (F3 G) F2 | (G2 A2) !>!c>B | B4 z2 | B2 B2 c2 | (B3 A) G2 | (G2 A2) F2 | G4 z2 | %53
w: tu nos _ ab _|ho- * ste|pro- * te- *|ge|et mor- tis|ho- * ra|su- * sci-|pe|
 B2 B2 c2 | (B3 A) G2 | G2 E2 F>G | G4 z2 | =F6 | E4 z2 | F6- | !fermata!F6 | G4 z2 | z6 |] G4 z2 | %64
w: et mor- tis|ho- * ra|su- * sci- *|pe|A-|men|A-||men||men|
 z6 |] %65
w: |
V:3
!p! [Bd]2 [Bd]2 [Bd]2 | ([Bd]4 [GB]2) | ([GB]2 [Ac]2 [FA]2) | G2 (DFGB) | [Bd]2 [ce]2 [Bd]2 | %5
 g4 d2 | [Bd]2 [Ac]2 [GB]2 | [FA]4 z2 | [FA]2 ([Ac][GB] [FA][EG]) | [FA]3 [GB] [FA]2 | %10
 [GB]2 [Ac]2 [ce]>[Bd] | [Bd](.[gb] .[fa].[eg] .[df].[ce]) | d2 g2 e2 | [Bd]3 [Ac] [GB]2 | %14
 [GB]2 [Ac]2 A>d | [Gd]4 z2 | d2 gf ge | ([Bd]3 [Ac]) [GB]2 | [GB]2 [Ec]2 [CFA]>[B,G] | %19
 [B,G](D _EC A,)D |[K:Gmin] G2 ^FG AF | G2 A2 B2 | B4 c>A | [DB]6 | B2 dc Bd | [Ac]4 [Fd]2 | %26
 [GB]2 [Ae]2 [Bd]2 | [Ac]6 | d4 e2 | c4 d2 | B4 c2 | A2 d2 c2 |!pp! [DG-B-]6 | [GB]3 [Ac] [GB]2 | %34
 A4 A>G | G2 z2 z2 | z A ^GA =ec |[K:G] [Bd]2 [Bd]2 [Bd]2 | [Bd]4 [GB]2 | [GB]2 [Ac]2 [FA]2 | %40
 (3GF(A (3GDB, (3DG)B | ([Bd]2 [ce]2 [Bd]2) | ([Bg]4 [Bd]2) | [Bd]2 [Ac]2 [GB]2 | [FA]6 | %45
 [FA]2 [Ac][GB] [FA][EG] | ([FA]3 [GB]) [FA]2 | [GB]2 [Ac]2 [ce]>[Bd] | %48
 (3[Bd].[gb].[fa] (3.[eg].[df].[ce] (3.[Bd].[Ac].[ce] | d2 g2 e2 | [Bd]3 [Ac] [GB]2 | %51
 [GB]2 [Ac]2 A>d | [Gd]6 | (3dBG (3gBG (3ecG | (3dBD (3FDc (3BGE | (3B,GE (3CAE (3CFD | %56
 (3GDB, (3G,B,D (3GDB, | (3GDB, (3G,B,D (3GDB, | (3GEC (3G,CE (3GEC | (3FDC (3A,CD (3FDC | %60
 [F,A,DF]2 z2 !fermata!z2 | z2 (3z B,D (3GBd | !fermata![GBg]6 |] [B,G]2 z2 [B,G]2 | %64
 !fermata![B,G]6 |] %65
V:4
 [G,D]6- | [G,D]6 | E4 C2 | B,2 z2 z2 | [B,D]2 [CE]2 [B,D]2 | G4 D2 | D6- | D2 D2 D2 | [D,D]6- | %9
 [D,D]2 [D,D]2 [D,D]2 | [G,B,]2 [A,C]2 [CE]>[B,D] | [G,B,D]2 z2 z2 | D4 EF | G2 C2 D2 | D6- | %15
 D(D B,G, D,)B,, | z2 D2 EF | [G,G]2 [A,C]2 [B,D]2 | E,2 C,2 D,2 | G,,(D, _E,C, A,,)D, | %20
[K:Gmin] B,2 CB, A,D | B,2 C2 B,>D | D4 A,>C | B,6 | D2 B,C DB, | C4 B,2 | B,2 C2 D>=E | F6 | %28
 [B,F]4 [G,E]2- | [G,E]2 [^F,D]4 | D4 C2 | D2 A,4 | G,4 F,2 | (E,4 B,,2) | C,2 A,,2 D,2 | %35
 G,,D (G=E ^C)D | (=EC =B,C) (A,D,) |[K:G] (3G,B,D (3GDB, (3G,B,D | (3G,B,D (3GDB, (3G,B,D | %39
 (3B,DB, (3DA,D (3CDC | [G,B,]4 z2 | (3B,DG (3CEG (3B,DG | (3G,B,D (3GDB, (3G,B,D | %43
 (3D,B,D (3F,A,D (3G,B,D | (3D,F,A, (3D^CE (3DA,F, | (3D,F,A, (3DD,D (3D,DD, | %46
 (3DE^C (3DEC (3DE=C | (3B,DG (3A,CG (3CEG | [G,D]2 z2 z2 | (3G,B,D (3GDB, (3CEG | %50
 (3G,B,D (3A,DF (3B,E^C | (3DD,D (3D,DD, (3DCD | (3B,DG, (3B,D,G, (3B,,D,G,, | z2 [G,B,]2 [D,D]2 | %54
 [G,B,]2 [D,A,]2 E,2 | E,2 A,,2 D,2 | G,,2 G,,2 G,,2 | [G,,D,=F,]6 | [G,,C,E,]6 | [G,,D,]6 | %60
 [G,,D,]2 z2 z2 | (3G,,B,,D, G, z z2 | [G,,D,G,]6 |] [G,,D,]2 z2 [G,,D,]2 | [G,,D,]6 |] %65
V:5
 x6 | x6 | E,2 C,2 D,2 | [G,,G,]2 z2 z2 | G,6 | B,6 | D,2 F,2 G,2 | D,2 D,2 D,2 | x6 | x6 | %10
 G,4 G,2 | x6 | G,6 | G,2 A,2 B,G, | D,4 C,2 | B,, z z2 z2 | G,,2 G,2 G,2 | x6 | x6 | x6 | %20
[K:Gmin] G,2 z2 D,2 | G,4 G,2 | F,2 F,2 F,2 | B,2 F,2 D,2 | B,,2 z2 D,2 | F,2 F,2 D,2 | %26
 E,2 C,2 B,,2 | F,2 A,2 F,2 | x6 | x6 | G,2 F,2 E,2 | D,6 | x6 | x6 | x6 | x6 | x6 |[K:G] G,4 G,2 | %38
 G,4 G,2 | D,4 D,2 | x6 | G,4 G,2 | G,4 G,2 | D,2 F,2 G,2 | x6 | x6 | x6 | G,4 G,2 | x6 | G,4 G,2 | %50
 G,2 A,2 x2 | x6 | x6 | x6 | x6 | x6 | x6 | x6 | x6 | x6 | x6 | x6 | x6 |] x6 | x6 |] %65
V:6
 x6 | x6 | x6 | x6 | x6 | B6 | x6 | x6 | x6 | x6 | x6 | x6 | B4 c2 | x6 | x4 F2 | x6 | B4 c2 | x6 | %18
 x6 | x6 |[K:Gmin] D6- | D2 ^F2 G>=E | F4 E2 | x6 | F4 F2 | x6 | x6 | x6 | B6 | A6 | G6 | ^F6 | %32
 x6 | x6 | [EG]4 [D^F]2 | x6 | x4 ^F2 |[K:G] x6 | x6 | x6 | x6 | x6 | x6 | x6 | x6 | x6 | x6 | x6 | %48
 x6 | B4 c2 | x6 | x4 F2 | x6 | x6 | x6 | x6 | x6 | x6 | x6 | x6 | x6 | x6 | x6 |] x6 | x6 |] %65

